img/subtract-9.svg

<svg fill="none" height="32" viewBox="0 0 31 32" width="31" xmlns="http://www.w3.org/2000/svg"><path clip-rule="evenodd" d="m22.1004 24.3899c4.0095-.4787 7.5006-2.9491 7.9393-5.2065.6914-3.5559.6343-8.6775.6343-8.6775 0-6.94181-4.5481-8.97655-4.5481-8.97655-2.2931-1.053235-6.2309-1.4961473-10.3219-1.52959414h-.1005c-4.0911.03344684-8.02626.47635914-10.31961 1.52959414 0 0-4.548257 2.03474-4.548257 8.97655 0 .4208-.002175.8634-.00444 1.3242-.006288 1.2798-.013265 2.6996.023749 4.1816.165168 6.7887 1.244608 13.4792 7.521238 15.1405 2.89402.766 5.37872.9264 7.37982.8164 3.629-.2012 5.6662-1.2951 5.6662-1.2951l-.1197-2.633s-2.5933.8177-5.5058.718c-2.8855-.0989-5.93179-.3111-6.3985-3.8539-.0431-.3112-.06465-.644-.06465-.9934 0 0 2.83265.6924 6.42245.8568 2.1951.1007 4.2537-.1286 6.3444-.3781zm3.2101-4.9404v-8.4053c0-1.71785-.4374-3.08296-1.3158-4.09292-.9062-1.00996-2.0927-1.5277-3.5654-1.5277-1.7042 0-2.9947.65498-3.8478 1.96509l-.8296 1.39046-.8294-1.39046c-.8533-1.31011-2.1437-1.96509-3.8478-1.96509-1.47286 0-2.65936.51774-3.56536 1.5277-.87858 1.00996-1.31598 2.37507-1.31598 4.09292v8.4053h3.33003v-8.1582c0-1.71979.72361-2.59268 2.17091-2.59268 1.6003 0 2.4025 1.03547 2.4025 3.08298v4.4655h3.3104v-4.4655c0-2.04751.802-3.08298 2.4023-3.08298 1.4474 0 2.171.87289 2.171 2.59268v8.1582z" fill="#fff" fill-rule="evenodd"/></svg>

<svg width="31" height="32" viewBox="0 0 31 32" fill="none" xmlns="http://www.w3.org/2000/svg">
<path fill-rule="evenodd" clip-rule="evenodd" d="M22.1004 24.3899C26.1099 23.9112 29.601 21.4408 30.0397 19.1834C30.7311 15.6275 30.674 10.5059 30.674 10.5059C30.674 3.56409 26.1259 1.52935 26.1259 1.52935C23.8328 0.476115 19.895 0.0332027 15.804 -0.000244141H15.7035C11.6124 0.0332027 7.67724 0.476115 5.38389 1.52935C5.38389 1.52935 0.835633 3.56409 0.835633 10.5059C0.835633 10.9267 0.833458 11.3693 0.831193 11.8301C0.824905 13.1099 0.817928 14.5297 0.854942 16.0117C1.02011 22.8004 2.09955 29.4909 8.37618 31.1522C11.2702 31.9182 13.7549 32.0786 15.756 31.9686C19.385 31.7674 21.4222 30.6735 21.4222 30.6735L21.3025 28.0405C21.3025 28.0405 18.7092 28.8582 15.7967 28.7585C12.9112 28.6596 9.86491 28.4474 9.3982 24.9046C9.3551 24.5934 9.33355 24.2606 9.33355 23.9112C9.33355 23.9112 12.1662 24.6036 15.756 24.768C17.9511 24.8687 20.0097 24.6394 22.1004 24.3899ZM25.3105 19.4495V11.0442C25.3105 9.32635 24.8731 7.96124 23.9947 6.95128C23.0885 5.94132 21.902 5.42358 20.4293 5.42358C18.7251 5.42358 17.4346 6.07856 16.5815 7.38867L15.7519 8.77913L14.9225 7.38867C14.0692 6.07856 12.7788 5.42358 11.0747 5.42358C9.60184 5.42358 8.41534 5.94132 7.50934 6.95128C6.63076 7.96124 6.19336 9.32635 6.19336 11.0442V19.4495H9.52339V11.2913C9.52339 9.57151 10.247 8.69862 11.6943 8.69862C13.2946 8.69862 14.0968 9.73409 14.0968 11.7816V16.2471H17.4072V11.7816C17.4072 9.73409 18.2092 8.69862 19.8095 8.69862C21.2569 8.69862 21.9805 9.57151 21.9805 11.2913V19.4495H25.3105Z" fill="white"/>
</svg>
